src/assets/Images/006-money-exchange.svg

<svg enable-background="new 0 0 480 480" viewBox="0 0 480 480" xmlns="http://www.w3.org/2000/svg"><path d="m448 384h16v56h-16z"/><path d="m448 456h16v24h-16z"/><path d="m128 224c-17.673 0-32 14.327-32 32s14.327 32 32 32 32-14.327 32-32-14.327-32-32-32zm0 48c-8.837 0-16-7.163-16-16s7.163-16 16-16 16 7.163 16 16-7.163 16-16 16z"/><path d="m227.76 184.96c-2.546-1.307-5.597-1.155-8 .4-8.481 5.61-17.875 9.698-27.76 12.08v-77.44c4.418 0 8-3.582 8-8v-112h-16v104h-120v-104h-16v112c0 4.418 3.582 8 8 8v21.84l-54.88 94.16c-2.101 3.647-1.017 8.298 2.48 10.64 6.054 4.06 13.116 6.358 20.4 6.64v66.72c.008 2.949 1.637 5.654 4.24 7.04 2.546 1.307 5.597 1.155 8-.4 6.298-4.133 13.1-7.44 20.24-9.84 2.419 20.017 19.358 35.104 39.52 35.2h56c22.091 0 40-17.909 40-40v-2.16c13.007-2.648 25.372-7.811 36.4-15.2 2.235-1.472 3.586-3.964 3.6-6.64v-96c-.008-2.949-1.637-5.654-4.24-7.04zm-155.76-64.96h104v16h-104zm-52.72 116.72 49.28-84.72h107.44v48h-4.88-48.72c7.662-5.275 14.417-11.76 20-19.2l-12.8-9.6c-13.639 18.081-34.952 28.737-57.6 28.8-2.379-.004-4.637 1.052-6.16 2.88l-21.52 25.84c-6.014 7.407-15.845 10.548-25.04 8zm132.72 99.28h-56c-12.889.01-23.484-10.161-24-23.04 4.236-.642 8.515-.963 12.8-.96h86.32 4.88c0 13.255-10.745 24-24 24zm64-52.4c-13.547 8.155-29.068 12.443-44.88 12.4h-86.32c-15.514-.006-30.829 3.495-44.8 10.24v-55.44c6.462-2.469 12.189-6.544 16.64-11.84l19.12-22.96h95.36c15.541.015 30.884-3.486 44.88-10.24z"/><path d="m16 32h16v88h-16z"/><path d="m16 0h16v16h-16z"/><path d="m27.025 364.012h33.92v16h-33.92z" transform="matrix(.7071 -.7071 .7071 .7071 -250.1693 140.0621)"/><path d="m112 384h16v32h-16z"/><path d="m62.113 384.109h35.76v16h-35.76z" transform="matrix(.4473 -.8944 .8944 .4473 -306.4847 288.2673)"/><path d="m478.88 244c2.101-3.647 1.017-8.298-2.48-10.64-6.047-4.084-13.109-6.41-20.4-6.72v-66.64c-.008-2.949-1.637-5.654-4.24-7.04-2.546-1.307-5.597-1.155-8 .4-6.248 4.121-12.995 7.427-20.08 9.84-2.427-20.077-19.457-35.184-39.68-35.2h-56c-22.091 0-40 17.909-40 40v2.16c-13.007 2.648-25.372 7.811-36.4 15.2-2.235 1.472-3.586 3.964-3.6 6.64v96c.008 2.949 1.637 5.654 4.24 7.04 2.546 1.307 5.597 1.155 8-.4 8.481-5.61 17.875-9.698 27.76-12.08v77.44c-4.418 0-8 3.582-8 8v112h16v-104h120v104h16v-112c0-4.418-3.582-8-8-8v-21.84zm-150.88-100h56c12.889-.01 23.484 10.161 24 23.04-4.236.642-8.515.963-12.8.96h-86.32-4.88c0-13.255 10.745-24 24-24zm-64 130.24v-77.84c13.547-8.155 29.068-12.443 44.88-12.4h86.32c15.514.005 30.829-3.495 44.8-10.24v55.52c-6.469 2.418-12.201 6.469-16.64 11.76l-19.12 22.96h-95.36c-15.541-.015-30.884 3.486-44.88 10.24zm144 85.76h-104v-16h104zm3.44-32h-107.44v-48h4.88 48.72c-7.662 5.275-14.417 11.76-20 19.2l12.8 9.6c13.639-18.081 34.952-28.737 57.6-28.8 2.379.004 4.637-1.052 6.16-2.88l21.52-25.84c6.014-7.407 15.845-10.548 25.04-8z"/><path d="m352 192c-17.673 0-32 14.327-32 32s14.327 32 32 32 32-14.327 32-32-14.327-32-32-32zm0 48c-8.837 0-16-7.163-16-16s7.163-16 16-16 16 7.163 16 16-7.163 16-16 16z"/><path d="m419.055 99.988h33.92v16h-33.92z" transform="matrix(.7071 -.7071 .7071 .7071 51.347 339.9383)"/><path d="m352 64h16v32h-16z"/><path d="m382.151 80.088h35.76v16h-35.76z" transform="matrix(.4473 -.8944 .8944 .4473 142.3171 406.4709)"/><path d="m312 392h16v16h-16z"/><path d="m152 72h16v16h-16z"/></svg>

<?xml version="1.0" encoding="iso-8859-1"?>
<!-- Generator: Adobe Illustrator 19.0.0, SVG Export Plug-In . SVG Version: 6.00 Build 0)  -->
<svg version="1.1" id="Capa_1" xmlns="http://www.w3.org/2000/svg" xmlns:xlink="http://www.w3.org/1999/xlink" x="0px" y="0px"
	 viewBox="0 0 480 480" style="enable-background:new 0 0 480 480;" xml:space="preserve">
<g>
	<g>
		<rect x="448" y="384" width="16" height="56"/>
	</g>
</g>
<g>
	<g>
		<rect x="448" y="456" width="16" height="24"/>
	</g>
</g>
<g>
	<g>
		<path d="M128,224c-17.673,0-32,14.327-32,32s14.327,32,32,32s32-14.327,32-32S145.673,224,128,224z M128,272
			c-8.837,0-16-7.163-16-16s7.163-16,16-16s16,7.163,16,16S136.837,272,128,272z"/>
	</g>
</g>
<g>
	<g>
		<path d="M227.76,184.96c-2.546-1.307-5.597-1.155-8,0.4c-8.481,5.61-17.875,9.698-27.76,12.08V120c4.418,0,8-3.582,8-8V0h-16v104
			H64V0H48v112c0,4.418,3.582,8,8,8v21.84L1.12,236c-2.101,3.647-1.017,8.298,2.48,10.64c6.054,4.06,13.116,6.358,20.4,6.64V320
			c0.008,2.949,1.637,5.654,4.24,7.04c2.546,1.307,5.597,1.155,8-0.4c6.298-4.133,13.1-7.44,20.24-9.84
			C58.899,336.817,75.838,351.904,96,352h56c22.091,0,40-17.909,40-40v-2.16c13.007-2.648,25.372-7.811,36.4-15.2
			c2.235-1.472,3.586-3.964,3.6-6.64v-96C231.992,189.051,230.363,186.346,227.76,184.96z M72,120h104v16H72V120z M19.28,236.72
			L68.56,152H176v48h-4.88H122.4c7.662-5.275,14.417-11.76,20-19.2l-12.8-9.6C115.961,189.281,94.648,199.937,72,200
			c-2.379-0.004-4.637,1.052-6.16,2.88l-21.52,25.84C38.306,236.127,28.475,239.268,19.28,236.72z M152,336H96
			c-12.889,0.01-23.484-10.161-24-23.04c4.236-0.642,8.515-0.963,12.8-0.96h86.32H176C176,325.255,165.255,336,152,336z M216,283.6
			c-13.547,8.155-29.068,12.443-44.88,12.4H84.8c-15.514-0.006-30.829,3.495-44.8,10.24V250.8c6.462-2.469,12.189-6.544,16.64-11.84
			L75.76,216h95.36c15.541,0.015,30.884-3.486,44.88-10.24V283.6z"/>
	</g>
</g>
<g>
	<g>
		<rect x="16" y="32" width="16" height="88"/>
	</g>
</g>
<g>
	<g>
		<rect x="16" width="16" height="16"/>
	</g>
</g>
<g>
	<g>
		<rect x="27.025" y="364.012" transform="matrix(0.7071 -0.7071 0.7071 0.7071 -250.1693 140.0621)" width="33.92" height="16"/>
	</g>
</g>
<g>
	<g>
		<rect x="112" y="384" width="16" height="32"/>
	</g>
</g>
<g>
	<g>
		<rect x="62.113" y="384.109" transform="matrix(0.4473 -0.8944 0.8944 0.4473 -306.4847 288.2673)" width="35.76" height="16"/>
	</g>
</g>
<g>
	<g>
		<path d="M478.88,244c2.101-3.647,1.017-8.298-2.48-10.64c-6.047-4.084-13.109-6.41-20.4-6.72V160
			c-0.008-2.949-1.637-5.654-4.24-7.04c-2.546-1.307-5.597-1.155-8,0.4c-6.248,4.121-12.995,7.427-20.08,9.84
			c-2.427-20.077-19.457-35.184-39.68-35.2h-56c-22.091,0-40,17.909-40,40v2.16c-13.007,2.648-25.372,7.811-36.4,15.2
			c-2.235,1.472-3.586,3.964-3.6,6.64v96c0.008,2.949,1.637,5.654,4.24,7.04c2.546,1.307,5.597,1.155,8-0.4
			c8.481-5.61,17.875-9.698,27.76-12.08V360c-4.418,0-8,3.582-8,8v112h16V376h120v104h16V368c0-4.418-3.582-8-8-8v-21.84L478.88,244
			z M328,144h56c12.889-0.01,23.484,10.161,24,23.04c-4.236,0.642-8.515,0.963-12.8,0.96h-86.32H304
			C304,154.745,314.745,144,328,144z M264,274.24V196.4c13.547-8.155,29.068-12.443,44.88-12.4h86.32
			c15.514,0.005,30.829-3.495,44.8-10.24v55.52c-6.469,2.418-12.201,6.469-16.64,11.76L404.24,264h-95.36
			C293.339,263.985,277.996,267.486,264,274.24z M408,360H304v-16h104V360z M411.44,328H304v-48h4.88h48.72
			c-7.662,5.275-14.417,11.76-20,19.2l12.8,9.6c13.639-18.081,34.952-28.737,57.6-28.8c2.379,0.004,4.637-1.052,6.16-2.88
			l21.52-25.84c6.014-7.407,15.845-10.548,25.04-8L411.44,328z"/>
	</g>
</g>
<g>
	<g>
		<path d="M352,192c-17.673,0-32,14.327-32,32s14.327,32,32,32c17.673,0,32-14.327,32-32S369.673,192,352,192z M352,240
			c-8.837,0-16-7.163-16-16s7.163-16,16-16s16,7.163,16,16S360.837,240,352,240z"/>
	</g>
</g>
<g>
	<g>
		<rect x="419.055" y="99.988" transform="matrix(0.7071 -0.7071 0.7071 0.7071 51.347 339.9383)" width="33.92" height="16"/>
	</g>
</g>
<g>
	<g>
		<rect x="352" y="64" width="16" height="32"/>
	</g>
</g>
<g>
	<g>
		<rect x="382.151" y="80.088" transform="matrix(0.4473 -0.8944 0.8944 0.4473 142.3171 406.4709)" width="35.76" height="16"/>
	</g>
</g>
<g>
	<g>
		<rect x="312" y="392" width="16" height="16"/>
	</g>
</g>
<g>
	<g>
		<rect x="152" y="72" width="16" height="16"/>
	</g>
</g>
<g>
</g>
<g>
</g>
<g>
</g>
<g>
</g>
<g>
</g>
<g>
</g>
<g>
</g>
<g>
</g>
<g>
</g>
<g>
</g>
<g>
</g>
<g>
</g>
<g>
</g>
<g>
</g>
<g>
</g>
</svg>
